X:1784
T:Söndagsmarsch
R:Marsch
C:Gunilla Johansson
O:Lajksjön, Lappland
N:Komponerad 2002.Första reprisen på nyckelharpa,den andra på orgel, därav de olika karaktärerna. Understämman av Eva Zwahlen.
Z:Eva Zwahlen 2010-03-24
Q:1/4=100
M:2/4
L:1/16
K:G
%
V:1
<<<<<<< 
D2|:G4 G3A|G4 B2c2|d4 d3e|d4 D4|G4 B4|c4 B4|A3G F2G2|A4 A2B2|c4 c2d2|e4 f2e2|d3B G2B2|D4 B2AB|c4 A2G2|F2GF E2F2|G4 G3G|1 G4 z2 D2:|2 G4 z2 BB| B2AA A2GG | G2B,2 D2BB| B2AA G2B,2| C4 z2 cc|c2BB B2AA| A2E2 E2cc| c2BB B2A2 | G2B,2 D2BB| B2AA A2GG|G2B,2 D2BB| B2G2 A2B2|c4 z4| c2cc d2c2|B2BB c2B2|A2AB cAFD|GDGB d4| c2cc d2c2|B2BB c2B2|A2AB cAFD| GD B,D|G,4 ] 
=======
<<<<<<< 
D2|:G4 G3A|G4 B2c2|d4 d3e|d4 D4|G4 B4|c4 B4|A3G F2G2|A4 A2B2|c4 c2d2|e4 f2e2|d3B G2B2|D4 B2AB|c4 A2G2|F2GF E2F2|G4 G3G|1 G4 z2 D2:|2 G4 z2 BB| B2AA A2GG | G2B,2 D2BB| B2AA G2B,2| C4 z2 cc|c2BB B2AA| A2E2 E2cc| c2BB B2A2 | G2B,2 D2BB| B2AA A2GG|G2B,2 D2BB| B2G2 A2B2|c4 z4| c2cc d2c2|B2BB c2B2|A2AB cAFD|GDGB d4| c2cc d2c2|B2BB c2B2|A2AB cAFD| GD B,D|G,4  |] 
=======
D2|:G4 G3A|G4 B2c2|d4 d3e|d4 D4|G4 B4|c4 B4|A3G F2G2|A4 A2B2|c4 c2d2|e4 f2e2|d3B G2B2|D4 B2AB|c4 A2G2|F2GF E2F2|G4 G3G|1 G4 z2 D2:|2 G4 z2 BB| B2AA A2GG | G2B,2 D2BB| B2AA G2B,2| C4 z2 cc|c2BB B2AA| A2E2 E2cc| c2BB B2A2 | G2B,2 D2BB| B2AA A2GG|G2B,2 D2BB| B2G2 A2B2|c4 z4| c2cc d2c2|B2BB c2B2|A2AB cAFD|GDGB d4| c2cc d2c2|B2BB c2B2|A2AB cAFD| GD B,DG,4 z4 |] 
>>>>>>> 
>>>>>>> 

%
V:1
D2|:G4 G3A|G4 B2c2|d4 d3e|d4 D4|G4 B4|c4 B4|A3G F2G2|A4 A2B2|c4 c2d2|e4 f2e2|d3B G2B2|D4 B2AB|c4 A2G2|F2GF E2F2|G4 G3G|1 G4 z2 D2:|2 G4 z2 BB| B2AA A2GG | G2B,2 D2BB| B2AA G2B,2| C4 z2 cc|c2BB B2AA| A2E2 E2cc| c2BB B2A2 | G2B,2 D2BB| B2AA A2GG|G2B,2 D2BB| B2G2 A2B2|c4 z4| c2cc d2c2|B2BB c2B2|A2AB cAFD|GDGB d4| c2cc d2c2|B2BB c2B2|A2AB cAFD| G2D2 B,2D2|G,4 z4 |] 
%
V:2
I:repbra 0
d2|:"G" B4 B3c|B4 G3D|B,4 B,3C|B,4 D4| B,4 D4| A4 G4|"D" F3G A3B| c4 c2d2|"C" e4 e2d2| c4 d2c2|"G" B2G2 D2G2 |B4 F2G2|"D" A4 F2E2| D4 C3C |"G" B,4 B,2B,2 |1 B4 z2 d2:|2 B,4 z2 GG| G2FF F2DD | B,2G,2 B,2GG| G2FF F2G2|"D" F4 z2 AA| A2GG G2FF| D2C2 A,2FF| A2GG G2F2|"G" D2G,2 B,2GG|G2FF F2DD|B,2G,2 B,2GG|G2B2 A2G2|"C" E4 z4| E2EE F2E2|"G" D2DD E2D2|"D" F2FG AFDF|"G" DB,DG B2G2|"C" E2EE F2E2|"G" D2DD E2D2|"D" F2FG AcdA|"G" B3B G2Bd| B4 z4|] 
(:musicend:)

(:music:)
